X:7160
T:The Old Reel
O:england
C:Trad
R:Reel
M:C
K:GDor
L:1/8
F |: DGGA G^FGA | BGdG _eGdG | CFFG FEFG |AFcF dFcF |
DGGA G^FGA | BABc dcde | fgfd cAFA | BGAF DG G2 :|
|: dgga g^fga | bgga bg g2 | cffg fefg | affg af f2 |
dgga bagb | abag fedc | defd cAFA | BGAF DG G2 :|


